img/gallery-item-camera.svg

<svg xmlns="http://www.w3.org/2000/svg" width="49" height="48"><path fill-rule="evenodd" fill="#828C8E" d="M47.499 22.5c-.827 0-1.498-.668-1.5-1.494h-.003c0-9.926-8.083-18-18.018-18V3c-.828-.001-1.5-.672-1.5-1.5 0-.829.672-1.5 1.502-1.5.014 0 .026.007.039.009 11.585.02 20.969 9.403 20.978 20.979 0 .005.003.008.003.012 0 .829-.672 1.5-1.501 1.5zm-6.005-1.494h-.003c0-7.444-6.061-13.5-13.513-13.5V7.5c-.415-.001-.749-.337-.749-.75 0-.414.335-.75.751-.75.014 0 .026.007.039.009 8.268.021 14.964 6.716 14.972 14.979 0 .005.003.008.003.012 0 .415-.336.75-.751.75-.413 0-.746-.333-.749-.744zm7.161 18.217C47.959 40.905 46.317 42 44.494 42H23.839l-4.686 4.682c-.88.879-2.033 1.318-3.185 1.318-1.153 0-2.305-.439-3.185-1.318l-10.51-10.5c-1.76-1.756-1.76-4.607 0-6.363l4.685-4.682L6.959 4.5c0-1.82 1.098-3.461 2.781-4.157C10.298.111 10.883 0 11.462 0c1.173 0 2.325.457 3.186 1.319l33.031 32.999c1.289 1.287 1.675 3.223.976 4.905zM9.111 27.212c-.013.014-.017.033-.03.046l-4.685 4.683c-.383.381-.44.828-.44 1.059 0 .231.057.678.44 1.061l10.51 10.5c.383.382.83.439 1.062.439.232 0 .679-.057 1.061-.439l4.687-4.682c.013-.013.032-.018.045-.029L9.111 27.212zm.716-1.406l13.34 13.327c.223-.051.439-.133.672-.133h18.086L9.962 7.068 9.96 25.137c0 .231-.082.447-.133.669zM45.556 36.44L12.524 3.438c-.283-.283-.66-.438-1.062-.438-.196 0-.389.038-.573.115-.563.232-.927.776-.927 1.385v.447L44.048 39h.446c.61 0 1.154-.363 1.387-.926.233-.562.106-1.204-.325-1.634z"/></svg>

﻿<svg 
 xmlns="http://www.w3.org/2000/svg"
 xmlns:xlink="http://www.w3.org/1999/xlink"
 width="49px" height="48px">
<path fill-rule="evenodd"  fill="rgb(130, 140, 142)"
 d="M47.499,22.500 C46.672,22.500 46.001,21.832 45.999,21.006 L45.996,21.006 C45.996,11.080 37.913,3.006 27.978,3.006 L27.978,3.000 C27.150,2.999 26.478,2.328 26.478,1.500 C26.478,0.671 27.150,0.000 27.980,0.000 C27.994,0.000 28.006,0.007 28.019,0.009 C39.604,0.029 48.988,9.412 48.997,20.988 C48.997,20.993 49.000,20.996 49.000,21.000 C49.000,21.829 48.328,22.500 47.499,22.500 ZM41.494,21.006 L41.491,21.006 C41.491,13.562 35.430,7.506 27.978,7.506 L27.978,7.500 C27.563,7.499 27.229,7.163 27.229,6.750 C27.229,6.336 27.564,6.000 27.980,6.000 C27.994,6.000 28.006,6.007 28.019,6.009 C36.287,6.030 42.983,12.725 42.991,20.988 C42.991,20.993 42.994,20.996 42.994,21.000 C42.994,21.415 42.658,21.750 42.243,21.750 C41.830,21.750 41.497,21.417 41.494,21.006 ZM48.655,39.223 C47.959,40.905 46.317,42.000 44.494,42.000 L23.839,42.000 L19.153,46.682 C18.273,47.561 17.120,48.000 15.968,48.000 C14.815,48.000 13.663,47.561 12.783,46.682 L2.273,36.182 C0.513,34.426 0.513,31.575 2.273,29.819 L6.958,25.137 L6.959,4.500 C6.959,2.680 8.057,1.039 9.740,0.343 C10.298,0.111 10.883,0.000 11.462,0.000 C12.635,0.000 13.787,0.457 14.648,1.319 L47.679,34.318 C48.968,35.605 49.354,37.541 48.655,39.223 ZM9.111,27.212 C9.098,27.226 9.094,27.245 9.081,27.258 L4.396,31.941 C4.013,32.322 3.956,32.769 3.956,33.000 C3.956,33.231 4.013,33.678 4.396,34.061 L14.906,44.561 C15.289,44.943 15.736,45.000 15.968,45.000 C16.200,45.000 16.647,44.943 17.029,44.561 L21.716,39.879 C21.729,39.866 21.748,39.861 21.761,39.850 L9.111,27.212 ZM9.827,25.806 L23.167,39.133 C23.390,39.082 23.606,39.000 23.839,39.000 L41.925,39.000 L9.962,7.068 L9.960,25.137 C9.960,25.368 9.878,25.584 9.827,25.806 ZM45.556,36.440 L12.524,3.438 C12.241,3.155 11.864,3.000 11.462,3.000 C11.266,3.000 11.073,3.038 10.889,3.115 C10.326,3.347 9.962,3.891 9.962,4.500 L9.962,4.947 L44.048,39.000 L44.494,39.000 C45.104,39.000 45.648,38.637 45.881,38.074 C46.114,37.512 45.987,36.870 45.556,36.440 Z"/>
</svg>
